svg/color/wec.svg

<svg width="64" height="65" viewBox="0 0 64 65" fill="none" xmlns="http://www.w3.org/2000/svg">
<rect y="0.303711" width="64" height="64" rx="32" fill="#C0973D"/>
<rect x="0.5" y="0.803711" width="63" height="63" rx="31.5" stroke="#070B14" stroke-opacity="0.15"/>
<path d="M42.5549 42.4843C43.1658 43.1228 43.7807 43.7757 44.4101 44.4155C44.6568 44.6661 44.6133 44.8481 44.3692 45.0724C41.9611 47.2977 39.1784 48.7566 35.9483 49.428C33.9163 49.8514 31.8751 49.9095 29.8655 49.6219C26.2449 49.1048 23.0426 47.5866 20.3363 45.079C18.08 42.9882 16.4386 40.4991 15.511 37.572C14.623 34.7663 14.4541 31.8986 15.0149 28.998C16.1602 23.066 19.4985 18.8027 24.8925 16.1553C26.8097 15.2148 28.8575 14.7175 31.0188 14.5816C36.1898 14.2558 40.6232 15.8968 44.4299 19.3515C44.5394 19.4504 44.6304 19.5691 44.7914 19.7459C44.1145 20.4094 43.4746 21.0689 42.7871 21.6744C42.6816 21.768 42.3148 21.6744 42.138 21.5609C40.8132 20.7114 39.5742 19.701 38.1782 18.9993C35.9246 17.8675 33.4849 17.572 30.9554 17.8042C27.629 18.1102 24.7948 19.4609 22.3868 21.7021C20.2849 23.6583 18.8889 26.063 18.2344 28.8806C17.6921 31.214 17.6842 33.5646 18.3373 35.848C19.6278 40.3619 22.4369 43.6108 26.7648 45.5275C28.459 46.278 30.2456 46.6329 32.0559 46.6368C35.9747 46.6461 39.4291 45.3402 42.2857 42.5938C42.3148 42.5661 42.3649 42.5595 42.5549 42.4817V42.4843Z" fill="black"/>
<path d="M48.9703 49.1523C47.5347 50.693 45.9223 51.8604 44.1951 52.8761C41.9652 54.186 39.5651 55.1001 37.0356 55.5842C34.1513 56.1356 31.2326 56.1949 28.3232 55.7029C22.1124 54.6516 17.1116 51.59 13.268 46.6131C11.013 43.6939 9.65001 40.3751 8.85041 36.8017C8.84117 36.7595 8.83326 36.7146 8.83062 36.6711C8.70527 35.0565 8.77652 35.4984 7.20767 35.3059C6.3421 35.2003 5.45145 35.2729 4.57269 35.2953C4.14254 35.3059 3.9974 35.1515 4.00004 34.7189C4.00927 33.2415 3.99608 33.2388 5.49236 33.2362C7.71171 33.2322 9.93238 33.2415 12.1517 33.223C12.6413 33.2191 12.8471 33.3642 12.8946 33.8852C13.462 40.019 16.3951 44.7795 21.4118 48.2685C24.1616 50.1812 27.2346 51.2391 30.59 51.5425C36.3231 52.0622 41.2382 50.2485 45.5106 46.4957C45.6254 46.3941 45.7402 46.2925 45.8603 46.1976C45.8906 46.1738 45.9407 46.1725 45.7956 46.3506C46.8459 47.2779 47.8962 48.2052 48.9689 49.151L48.9703 49.1523Z" fill="black"/>
<path d="M49.221 15.4166C48.1944 16.4204 47.1943 17.3992 46.1835 18.3872C45.3826 17.7263 44.6094 17.0114 43.761 16.3993C39.6508 13.4353 35.0617 12.2007 30.0293 12.8325C23.077 13.7044 18.059 17.4058 14.7973 23.5317C13.6863 25.6185 13.0859 27.8873 12.9131 30.2537C12.8867 30.6204 12.8009 30.8104 12.3734 30.8038C9.86774 30.7695 7.36075 30.7458 4.85507 30.755C4.30485 30.7563 4.08582 30.6099 4.16763 30.044C4.22964 29.614 4.08054 29.0679 4.29825 28.7764C4.45131 28.5706 5.06223 28.6946 5.46863 28.6933C6.36718 28.688 7.26706 28.6827 8.1643 28.7051C8.59841 28.7157 8.75675 28.5653 8.83723 28.1181C9.6619 23.5211 11.5659 19.4517 14.7815 16.0181C17.0483 13.5976 19.6384 11.648 22.689 10.3183C26.5102 8.64969 30.5122 8.00334 34.6395 8.43336C40.2103 9.01244 45.062 11.2285 49.0692 15.1937C49.1141 15.2385 49.1418 15.2992 49.2196 15.4166H49.221Z" fill="black"/>
<path d="M40.2313 24.4194C38.8327 23.0818 37.4024 22.1611 35.7464 21.6335C33.8134 21.0175 31.854 20.8842 29.8616 21.3565C26.0787 22.2535 23.5215 24.5803 21.9487 28.0733C21.6914 28.6458 21.8352 28.8595 22.4923 28.8608C25.5258 28.8621 28.5593 28.8515 31.5927 28.8634C36.3164 28.8819 41.0388 28.9201 45.7625 28.9426C49.8067 28.9623 58.8121 29.0309 59.262 28.9953C60.0023 28.936 60.0128 29.4425 59.997 29.9886C59.9627 31.2127 60.2107 31.1599 58.8319 31.1533C50.0864 31.1138 41.3423 31.0782 32.5982 31.0254C28.4273 31.0003 24.2565 30.937 20.0856 30.8961C19.228 30.8869 19.2478 30.8988 19.3744 30.011C19.7967 27.0694 21.1359 24.579 23.2972 22.603C26.9126 19.2974 31.1468 18.2342 35.9166 19.515C37.9473 20.0611 39.7048 21.0993 41.2658 22.5001C41.5429 22.7494 41.6075 22.9024 41.3344 23.1821C40.9676 23.5594 40.6338 23.967 40.234 24.4207L40.2313 24.4194Z" fill="black"/>
<path d="M41.5087 41.6124C38.1084 44.649 34.2925 45.9258 29.9224 45.0711C24.6181 44.0343 21.1835 40.8487 19.6516 35.6528C19.4854 35.0895 19.4102 34.4999 19.2808 33.9248C19.1753 33.4552 19.3508 33.3061 19.8258 33.3114C21.673 33.3351 23.5203 33.3259 25.3676 33.3299C32.2275 33.3444 39.0887 33.3483 45.9487 33.376C50.3887 33.3932 54.8274 33.4499 59.2674 33.4723C59.7332 33.475 59.9126 33.6319 59.8717 34.087C59.8295 34.5632 59.9615 35.1515 59.7253 35.4786C59.5722 35.6897 58.8927 35.5182 58.448 35.5182C57.7223 35.5182 56.9966 35.5182 56.2709 35.5143C49.1497 35.4813 42.0272 35.443 34.906 35.414C30.7748 35.3969 26.6435 35.3942 22.5135 35.3863C21.6823 35.385 21.6467 35.4905 21.9884 36.2635C22.8804 38.2778 24.1444 39.9992 25.9772 41.2338C29.0383 43.2969 32.3357 43.8074 35.8732 42.6242C37.2943 42.1493 38.5372 41.3987 39.6416 40.4054C39.9253 40.1509 40.1219 40.0823 40.395 40.4134C40.7262 40.813 41.1009 41.1758 41.5113 41.6124H41.5087Z" fill="black"/>
</svg>

<svg xmlns="http://www.w3.org/2000/svg" width="64" height="65" fill="none" viewBox="0 0 64 65"><rect width="64" height="64" y=".304" fill="#C0973D" rx="32"/><rect width="63" height="63" x=".5" y=".804" stroke="#070B14" stroke-opacity=".15" rx="31.5"/><path fill="#000" d="M42.555 42.484c.61.639 1.226 1.292 1.855 1.931.247.251.203.433-.04.657-2.409 2.226-5.192 3.685-8.422 4.356a17.5 17.5 0 0 1-6.082.194c-3.621-.517-6.823-2.035-9.53-4.543-2.256-2.09-3.897-4.58-4.825-7.507a17.2 17.2 0 0 1-.496-8.574c1.145-5.932 4.483-10.195 9.877-12.843 1.918-.94 3.966-1.438 6.127-1.573 5.17-.326 9.604 1.315 13.41 4.77.11.098.201.217.362.394-.676.663-1.316 1.323-2.004 1.928-.105.094-.472 0-.649-.113-1.325-.85-2.564-1.86-3.96-2.562-2.253-1.131-4.693-1.427-7.223-1.195-3.326.306-6.16 1.657-8.568 3.898-2.102 1.956-3.498 4.361-4.153 7.179-.542 2.333-.55 4.684.103 6.967 1.29 4.514 4.1 7.763 8.428 9.68 1.694.75 3.48 1.105 5.29 1.109 3.92.01 7.374-1.297 10.23-4.043.03-.028.08-.035.27-.112z"/><path fill="#000" d="M48.97 49.152c-1.435 1.541-3.048 2.708-4.775 3.724a22.4 22.4 0 0 1-7.16 2.708c-2.884.552-5.802.61-8.712.119-6.21-1.051-11.211-4.113-15.055-9.09-2.255-2.92-3.618-6.238-4.418-9.811a1 1 0 0 1-.02-.13c-.125-1.615-.053-1.174-1.622-1.366-.866-.106-1.757-.033-2.635-.01-.43.01-.576-.145-.573-.577.01-1.477-.004-1.48 1.492-1.483 2.22-.004 4.44.006 6.66-.013.49-.004.695.141.743.662.567 6.134 3.5 10.895 8.517 14.384 2.75 1.912 5.823 2.97 9.178 3.273 5.733.52 10.648-1.294 14.92-5.046.115-.102.23-.204.35-.298.03-.024.08-.026-.064.153zm.251-33.735-3.037 2.97c-.801-.66-1.575-1.376-2.423-1.988-4.11-2.964-8.7-4.198-13.732-3.567-6.952.872-11.97 4.574-15.232 10.7-1.11 2.087-1.711 4.355-1.884 6.722-.026.366-.112.556-.54.55a433 433 0 0 0-7.518-.049c-.55.001-.77-.145-.687-.711.062-.43-.087-.976.13-1.268.153-.205.764-.081 1.17-.083.9-.005 1.8-.01 2.696.012.434.01.593-.14.673-.587.825-4.597 2.729-8.666 5.945-12.1 2.266-2.42 4.856-4.37 7.907-5.7 3.821-1.668 7.823-2.315 11.95-1.885 5.571.58 10.423 2.796 14.43 6.76.045.046.073.106.15.224z"/><path fill="#000" d="M40.231 24.42c-1.398-1.338-2.829-2.259-4.485-2.786-1.933-.617-3.892-.75-5.884-.277-3.783.896-6.34 3.223-7.913 6.716-.258.573-.114.787.543.788 3.034.001 6.067-.01 9.1.002 4.724.019 9.447.057 14.17.08 4.045.02 13.05.088 13.5.052.74-.059.75.447.735.994-.034 1.224.214 1.17-1.165 1.164-8.746-.04-17.49-.075-26.234-.128-4.17-.025-8.341-.088-12.512-.129-.858-.01-.838.003-.712-.885.423-2.942 1.762-5.432 3.923-7.408 3.616-3.306 7.85-4.369 12.62-3.088 2.03.546 3.788 1.584 5.349 2.985.277.25.342.402.068.682-.366.377-.7.785-1.1 1.239zm1.278 17.192c-3.4 3.037-7.217 4.314-11.587 3.46-5.304-1.038-8.739-4.223-10.27-9.42-.167-.562-.242-1.152-.371-1.727-.106-.47.07-.619.545-.614 1.847.024 3.694.015 5.542.019 6.86.014 13.72.018 20.58.046 4.44.017 8.88.074 13.32.096.465.003.645.16.604.615-.042.476.09 1.064-.147 1.392-.153.21-.832.04-1.277.04q-1.089.001-2.177-.005c-7.121-.033-14.244-.071-21.365-.1-4.131-.017-8.262-.02-12.392-.028-.832-.001-.867.104-.526.877.892 2.015 2.156 3.736 3.99 4.97 3.06 2.064 6.358 2.574 9.895 1.391a10.6 10.6 0 0 0 3.769-2.219c.283-.254.48-.323.753.008.331.4.706.763 1.116 1.2z"/></svg>
